X:273
T: ES HAETT EIN BIEDERMANN EIN WEIB
N: E0150
O: Europa, Mitteleuropa, Deutschland
R: erzaehlendes Volks - Lied, Scherz, Schwank, betrogener Ehemann
M: 6/4
L: 1/8
K: F
A2 | A4A2A4A2 | A4A2A4
A2 | A4A2A4F2 | G3AB2A3GF2 | G8z2
G2 | G4G2G4A2 | B4B2A4
A2 | G4F2F4E2 | F8z2
F2 | D4D2E4E2 | F4F2F4
F2 | D4D2E4E2 | F8z2

@@@ Tune index: 3923
